src/apps/symbolic/help-contents-symbolic.svg

<svg width="16" height="16" version="1.1" xmlns="http://www.w3.org/2000/svg">
 <path d="m8 5c1.1 0 2 0.9 2 2s-0.9 2-2 2v1h-1v-2h1c0.55 0 1-0.45 1-1s-0.45-1-1-1-1 0.45-1 1h-1c0-1.1 0.9-2 2-2zm-1 6h1v1h-1z" fill="#363636"/>
 <path d="m4 1c-1.108 0-2 0.892-2 2v11c0 1.108 0.892 2 2 2h8c1.108 0 2-0.892 2-2v-11c0-1.108-0.892-2-2-2h-8zm0 1h8c0.554 0 1 0.446 1 1v11c0 0.554-0.446 1-1 1h-8c-0.554 0-1-0.446-1-1v-11c0-0.554 0.446-1 1-1z" fill="#363636"/>
</svg>

<svg xmlns="http://www.w3.org/2000/svg" width="16" height="16">
    <path fill="#050505" fill-opacity=".7" d="M8 5c1.1 0 2 .9 2 2s-.9 2-2 2v1H7V8h1c.55 0 1-.45 1-1s-.45-1-1-1-1 .45-1 1H6c0-1.1.9-2 2-2zm-1 6h1v1H7z"/>
    <path fill="#050505" fill-opacity=".7" d="M4 1c-1.108 0-2 .892-2 2v11c0 1.108.892 2 2 2h8c1.108 0 2-.892 2-2V3c0-1.108-.892-2-2-2H4zm0 1h8c.554 0 1 .446 1 1v11c0 .554-.446 1-1 1H4c-.554 0-1-.446-1-1V3c0-.554.446-1 1-1z"/>
</svg>
